flaticon/transport/electric-car.svg

<svg xmlns="http://www.w3.org/2000/svg" width="32" height="32" viewBox="0 0 24 24">
    <path d="M4.800781 19.601562C4.359375 19.601562 4 19.960938 4 20.398438 4 20.839844 4.359375 21.199219 4.800781 21.199219 5.238281 21.199219 5.601562 20.839844 5.601562 20.398438 5.601562 19.960938 5.238281 19.601562 4.800781 19.601562zM19.199219 19.601562C18.761719 19.601562 18.398438 19.960938 18.398438 20.398438 18.398438 20.839844 18.761719 21.199219 19.199219 21.199219 19.640625 21.199219 20 20.839844 20 20.398438 20 19.960938 19.640625 19.601562 19.199219 19.601562zM19.199219 19.601562"/>
    <path d="M 23 14.800781 L 21.359375 14.800781 C 20.199219 14.800781 19.078125 14.160156 18.441406 13.160156 L 17.039062 10.921875 C 16.558594 10.121094 15.640625 9.601562 14.679688 9.601562 L 6.519531 9.601562 C 5.558594 9.601562 4.679688 10.121094 4.160156 10.921875 L 3.246094 12.402344 C 3.230469 12.402344 3.214844 12.398438 3.199219 12.398438 C 1.878906 12.398438 0.800781 11.320312 0.800781 10 L 0.800781 4.800781 C 0.800781 3.921875 1.519531 3.199219 2.398438 3.199219 C 3.28125 3.199219 4 3.921875 4 4.800781 C 4 6.121094 5.078125 7.199219 6.398438 7.199219 C 7.582031 7.199219 8.574219 6.332031 8.765625 5.199219 L 9.601562 5.199219 C 9.839844 5.199219 10 5.039062 10 4.800781 L 10 2.800781 C 10 2.558594 9.839844 2.398438 9.601562 2.398438 L 9.601562 1.199219 C 9.601562 0.960938 9.441406 0.800781 9.199219 0.800781 C 8.960938 0.800781 8.800781 0.960938 8.800781 1.199219 L 8.800781 2.398438 L 8 2.398438 L 8 1.199219 C 8 0.960938 7.839844 0.800781 7.601562 0.800781 C 7.359375 0.800781 7.199219 0.960938 7.199219 1.199219 L 7.199219 2.398438 C 6.960938 2.398438 6.800781 2.558594 6.800781 2.800781 L 6.800781 4.800781 C 6.800781 5.039062 6.960938 5.199219 7.199219 5.199219 L 7.949219 5.199219 C 7.769531 5.886719 7.140625 6.398438 6.398438 6.398438 C 5.519531 6.398438 4.800781 5.679688 4.800781 4.800781 C 4.800781 3.480469 3.71875 2.398438 2.398438 2.398438 C 1.078125 2.398438 0 3.480469 0 4.800781 L 0 10 C 0 11.613281 1.210938 12.957031 2.769531 13.171875 L 2.160156 14.160156 C 1.921875 14.558594 1.480469 14.800781 1 14.800781 C 0.71875 14.800781 0.480469 14.921875 0.28125 15.078125 C 0.121094 15.28125 0 15.519531 0 15.800781 L 0 19.398438 C 0 20.160156 0.640625 20.800781 1.398438 20.800781 L 2.027344 20.800781 C 2.21875 22.167969 3.375 23.199219 4.800781 23.199219 C 6.222656 23.199219 7.378906 22.167969 7.570312 20.800781 L 16.429688 20.800781 C 16.621094 22.167969 17.777344 23.199219 19.199219 23.199219 C 20.625 23.199219 21.78125 22.167969 21.972656 20.800781 L 22.398438 20.800781 C 23.28125 20.800781 24 20.078125 24 19.199219 L 24 15.800781 C 24 15.238281 23.558594 14.800781 23 14.800781 Z M 7.601562 3.199219 L 9.199219 3.199219 L 9.199219 4.398438 L 7.601562 4.398438 Z M 6.398438 13.601562 L 6.398438 12 L 11.601562 12 L 11.601562 13.601562 Z M 12.398438 12 L 16.695312 12 L 17.695312 13.601562 L 12.398438 13.601562 Z M 4.800781 22.398438 C 3.679688 22.398438 2.800781 21.519531 2.800781 20.398438 C 2.800781 19.28125 3.679688 18.398438 4.800781 18.398438 C 5.921875 18.398438 6.800781 19.28125 6.800781 20.398438 C 6.800781 21.519531 5.921875 22.398438 4.800781 22.398438 Z M 19.199219 22.398438 C 18.078125 22.398438 17.199219 21.519531 17.199219 20.398438 C 17.199219 19.28125 18.078125 18.398438 19.199219 18.398438 C 20.320312 18.398438 21.199219 19.28125 21.199219 20.398438 C 21.199219 21.519531 20.320312 22.398438 19.199219 22.398438 Z M 22.359375 20 L 21.972656 20 C 21.78125 18.632812 20.625 17.601562 19.199219 17.601562 C 19.195312 17.601562 19.1875 17.601562 19.179688 17.601562 C 19.171875 17.601562 19.167969 17.601562 19.160156 17.601562 C 17.761719 17.601562 16.601562 18.640625 16.398438 20 L 7.570312 20 C 7.394531 18.71875 6.363281 17.730469 5.0625 17.613281 C 5.054688 17.613281 5.042969 17.609375 5.035156 17.609375 C 5 17.609375 4.96875 17.605469 4.933594 17.601562 C 4.890625 17.601562 4.84375 17.601562 4.800781 17.601562 C 4.753906 17.601562 4.710938 17.601562 4.664062 17.601562 C 4.632812 17.605469 4.597656 17.609375 4.566406 17.609375 C 4.554688 17.609375 4.546875 17.613281 4.539062 17.613281 C 3.234375 17.730469 2.207031 18.71875 2.027344 20 L 1.398438 20 C 1.078125 20 0.800781 19.71875 0.800781 19.398438 L 0.800781 17.601562 L 2 17.601562 C 2.238281 17.601562 2.398438 17.441406 2.398438 17.199219 C 2.398438 16.960938 2.238281 16.800781 2 16.800781 L 0.800781 16.800781 L 0.800781 15.800781 C 0.800781 15.761719 0.800781 15.71875 0.878906 15.679688 C 0.921875 15.640625 0.960938 15.601562 1.039062 15.601562 C 1.761719 15.601562 2.480469 15.199219 2.839844 14.601562 L 4.839844 11.359375 C 5.199219 10.761719 5.839844 10.398438 6.519531 10.398438 L 14.679688 10.398438 C 15.300781 10.398438 15.886719 10.699219 16.226562 11.238281 L 6.320312 11.238281 C 5.921875 11.238281 5.601562 11.558594 5.601562 11.960938 L 5.601562 13.679688 C 5.601562 14.078125 5.921875 14.398438 6.320312 14.398438 L 18.316406 14.398438 C 19.097656 15.183594 20.171875 15.640625 21.320312 15.640625 L 22.960938 15.640625 C 23.078125 15.640625 23.160156 15.71875 23.160156 15.839844 L 23.160156 16.800781 L 22 16.800781 C 21.761719 16.800781 21.601562 16.960938 21.601562 17.199219 C 21.601562 17.441406 21.761719 17.601562 22 17.601562 L 23.160156 17.601562 L 23.160156 19.199219 C 23.160156 19.640625 22.800781 20 22.359375 20 Z M 22.359375 20"/>
    <path d="M 14 15.601562 L 12 15.601562 C 11.761719 15.601562 11.601562 15.761719 11.601562 16 C 11.601562 16.238281 11.761719 16.398438 12 16.398438 L 13.601562 16.398438 L 13.601562 16.800781 C 13.601562 17.039062 13.761719 17.199219 14 17.199219 C 14.238281 17.199219 14.398438 17.039062 14.398438 16.800781 L 14.398438 16 C 14.398438 15.761719 14.238281 15.601562 14 15.601562 Z M 14 15.601562"/>
</svg>

<svg xmlns="http://www.w3.org/2000/svg" width="32" height="32" viewBox="0 0 24 24">
    <path d="M4.8 19.602c-.44 0-.8.359-.8.796 0 .442.36.801.8.801.438 0 .802-.36.802-.8a.804.804 0 0 0-.801-.797zm0 0M19.2 19.602c-.438 0-.802.359-.802.796 0 .442.364.801.801.801.442 0 .801-.36.801-.8a.801.801 0 0 0-.8-.797zm0 0"/>
    <path d="M23 14.8h-1.64c-1.16 0-2.282-.64-2.919-1.64l-1.402-2.238a2.785 2.785 0 0 0-2.36-1.32H6.52c-.96 0-1.84.52-2.359 1.32l-.914 1.48c-.016 0-.031-.004-.047-.004A2.404 2.404 0 0 1 .801 10V4.8c0-.878.719-1.6 1.597-1.6C3.281 3.2 4 3.921 4 4.8a2.404 2.404 0 0 0 2.398 2.4 2.408 2.408 0 0 0 2.368-2h.836c.238 0 .398-.16.398-.4v-2c0-.241-.16-.402-.398-.402V1.2c0-.238-.16-.398-.403-.398-.238 0-.398.16-.398.398v1.2H8v-1.2c0-.238-.16-.398-.398-.398-.243 0-.403.16-.403.398v1.2c-.238 0-.398.16-.398.402v2c0 .238.16.398.398.398h.75c-.18.688-.808 1.2-1.55 1.2A1.602 1.602 0 0 1 4.8 4.8a2.41 2.41 0 0 0-2.403-2.403A2.407 2.407 0 0 0 0 4.801V10a3.215 3.215 0 0 0 2.77 3.172l-.61.988c-.238.399-.68.64-1.16.64-.281 0-.52.122-.719.278-.16.203-.281.442-.281.723v3.597c0 .762.64 1.403 1.398 1.403h.63A2.779 2.779 0 0 0 4.8 23.199a2.778 2.778 0 0 0 2.77-2.398h8.859a2.778 2.778 0 0 0 2.77 2.398 2.779 2.779 0 0 0 2.773-2.398h.425c.883 0 1.602-.723 1.602-1.602v-3.398a.99.99 0 0 0-1-1zM7.602 3.2h1.597v1.198H7.602zM6.398 13.601V12h5.204v1.602zm6-1.602h4.297l1 1.602h-5.297zM4.801 22.398c-1.121 0-2-.878-2-2 0-1.117.879-2 2-2 1.12 0 2 .883 2 2 0 1.122-.88 2-2 2zm14.398 0c-1.12 0-2-.878-2-2 0-1.117.88-2 2-2 1.121 0 2 .883 2 2 0 1.122-.879 2-2 2zM22.36 20h-.386a2.779 2.779 0 0 0-2.774-2.398h-.039c-1.398 0-2.558 1.039-2.762 2.398H7.57a2.772 2.772 0 0 0-2.508-2.387c-.007 0-.019-.004-.027-.004-.035 0-.066-.004-.101-.007h-.27a.822.822 0 0 1-.098.007c-.011 0-.02.004-.027.004A2.776 2.776 0 0 0 2.027 20h-.629a.614.614 0 0 1-.597-.602v-1.796H2c.238 0 .398-.16.398-.403 0-.238-.16-.398-.398-.398H.8v-1c0-.04 0-.082.079-.121.043-.04.082-.078.16-.078.723 0 1.441-.403 1.8-1l2-3.243c.36-.597 1-.96 1.68-.96h8.16c.622 0 1.208.3 1.548.84H6.32a.718.718 0 0 0-.718.722v1.719c0 .398.32.718.718.718h11.996a4.23 4.23 0 0 0 3.004 1.243h1.64c.118 0 .2.078.2.199v.96H22c-.238 0-.398.16-.398.4 0 .241.16.402.398.402h1.16v1.597c0 .442-.36.801-.8.801zm0 0"/>
    <path d="M14 15.602h-2c-.238 0-.398.16-.398.398 0 .238.16.398.398.398h1.602v.403c0 .238.16.398.398.398.238 0 .398-.16.398-.398V16c0-.238-.16-.398-.398-.398zm0 0"/>
</svg>
